modules/framework7-icons/icons/arrow_left_fill.svg

<?xml version="1.0" encoding="UTF-8"?>
<svg width="50px" height="50px" viewBox="0 0 50 50" version="1.1" xmlns="http://www.w3.org/2000/svg" xmlns:xlink="http://www.w3.org/1999/xlink">
    <!-- Generator: Sketch 40.1 (33804) - http://www.bohemiancoding.com/sketch -->
    <title>arrow_left_fill</title>
    <desc>Created with Sketch.</desc>
    <defs></defs>
    <g id="Page-1" stroke="none" stroke-width="1" fill="none" fill-rule="evenodd">
        <g id="arrow_left_fill" fill="#000000">
            <path d="M25,50 C38.8071187,50 50,38.8071187 50,25 C50,11.1928813 38.8071187,0 25,0 C11.1928813,0 0,11.1928813 0,25 C0,38.8071187 11.1928813,50 25,50 Z M18.2566975,23.4773426 L36.4274062,23.4773426 C37.532453,23.4773426 38.4282704,24.3650723 38.4282704,25.4773426 C38.4282704,26.5819121 37.5266432,27.4773426 36.4274062,27.4773426 L18.2566975,27.4773426 L24.7957038,34.0163489 C25.5748347,34.7954797 25.5787254,36.0548097 24.7922315,36.8413036 C24.0111829,37.6223522 22.7468383,37.6243376 21.9672767,36.844776 L12.060837,26.9383363 C11.6488614,26.5263607 11.4536354,25.980126 11.4773982,25.4405261 L11.4773982,25.4405261 C11.473567,24.9252827 11.6679406,24.4092453 12.060837,24.0163489 L21.9672767,14.1099092 C22.7464076,13.3307784 24.0057375,13.3268877 24.7922315,14.1133816 C25.57328,14.8944302 25.5752654,16.1587748 24.7957038,16.9383363 L18.2566975,23.4773426 L18.2566975,23.4773426 Z" id="Combined-Shape"></path>
        </g>
    </g>
</svg>

<svg width="50" height="50" viewBox="0 0 50 50" xmlns="http://www.w3.org/2000/svg"><path d="M25 50c13.807 0 25-11.193 25-25S38.807 0 25 0 0 11.193 0 25s11.193 25 25 25zm-6.743-26.523h18.17c1.105 0 2.001.888 2.001 2 0 1.105-.901 2-2 2H18.256l6.539 6.54c.779.778.783 2.038-.004 2.824a1.997 1.997 0 0 1-2.825.004l-9.906-9.907a1.988 1.988 0 0 1-.584-1.497 1.986 1.986 0 0 1 .584-1.425l9.906-9.906a1.993 1.993 0 0 1 2.825.003c.781.781.783 2.046.004 2.825l-6.54 6.54z" fill="#000" fill-rule="evenodd"/></svg>
